icons/filled/square-number-2.svg

<svg xmlns="http://www.w3.org/2000/svg" width="24" height="24" viewBox="0 0 24 24" fill="currentColor"><path d="M18.333 2c1.96 0 3.56 1.537 3.662 3.472l.005 .195v12.666c0 1.96 -1.537 3.56 -3.472 3.662l-.195 .005h-12.666a3.667 3.667 0 0 1 -3.662 -3.472l-.005 -.195v-12.666c0 -1.96 1.537 -3.56 3.472 -3.662l.195 -.005h12.666zm-5.333 5h-3l-.117 .007a1 1 0 0 0 0 1.986l.117 .007h3v2h-2l-.15 .005a2 2 0 0 0 -1.844 1.838l-.006 .157v2l.005 .15a2 2 0 0 0 1.838 1.844l.157 .006h3l.117 -.007a1 1 0 0 0 0 -1.986l-.117 -.007h-3v-2h2l.15 -.005a2 2 0 0 0 1.844 -1.838l.006 -.157v-2l-.005 -.15a2 2 0 0 0 -1.838 -1.844l-.157 -.006z"/></svg>

<svg xmlns="http://www.w3.org/2000/svg" width="24" height="24" fill="currentColor"><path d="M18.333 2c1.96 0 3.56 1.537 3.662 3.472l.005.195v12.666c0 1.96-1.537 3.56-3.472 3.662l-.195.005H5.667a3.667 3.667 0 0 1-3.662-3.472L2 18.333V5.667c0-1.96 1.537-3.56 3.472-3.662L5.667 2zM13 7h-3l-.117.007a1 1 0 0 0 0 1.986L10 9h3v2h-2l-.15.005a2 2 0 0 0-1.844 1.838L9 13v2l.005.15a2 2 0 0 0 1.838 1.844L11 17h3l.117-.007a1 1 0 0 0 0-1.986L14 15h-3v-2h2l.15-.005a2 2 0 0 0 1.844-1.838L15 11V9l-.005-.15a2 2 0 0 0-1.838-1.844z"/></svg>
